X:1
T:[ID 7-132]
T:[ID 7-132]
T:Bezeichnung standardisiert: Polonaise Polonoise 1. ex G. #.
T:Urheber unbekannt Datum in der hier transkribierten schriftlichen Quelle: 1776 - 1791
C:Urheber unbekannt
C:Datum in der hier transkribierten schriftlichen Quelle: 1776 - 1791
L:1/8
M:3/4
K:G
V:1 treble 
V:1
 d2 d2 d2 | B/d/B/G/ A/c/A/F/ G2 | D/E/F/G/ A/G/A/B/ ca |{d} cB/A/ B4 | %4
{f} ef/g/ [^ce][ce][ce][ce] |{e} de/f/ [FA][FA][FA][FA] |{G} FE/D/{GA} B2 AG | F/E/D/^C/ D2 D2 :: %8
!f! D2 A2 d2 | B/d/B/G/ A/c/A/F/ G2 |!p! D2 A2 c2 | B/d/B/G/ A/c/A/F/ G2 | %12
!f! e/c/G/E/ Ce e/f/g/e/ | d/B/G/D/ B,ddB | ce/d/ cBAG | F/G/A/F/ D2 D2 |!p! (d'c')(c'b) b2 | %17
 G/A/B/c/!f! d/c/B/A/ G2 |!p! (c'b)(ba) a2 | d/e/f/g/ a/g/f/e/ d/c/B/A/ |"^1)" GD/G/ BG/B/ dB/d/ | %21
 g d2 c2 B |"^1)" GD/G/ BG/B/ dB/d/ | g d2 c2 B | g/f/e/d/ e/d/c/B/ c/B/A/G/ | F/G/A/F/ G2 G,2 :| %26

